usr/share/icons/biglinux-icons-material/scalable/apps/terminix.svg

<?xml version="1.0" encoding="UTF-8" standalone="no"?>
<svg
   width="24"
   height="24"
   viewBox="0 0 24 24"
   fill="none"
   version="1.1"
   id="svg2709"
   sodipodi:docname="terminix.svg"
   inkscape:version="1.2.2 (b0a8486541, 2022-12-01)"
   xmlns:inkscape="http://www.inkscape.org/namespaces/inkscape"
   xmlns:sodipodi="http://sodipodi.sourceforge.net/DTD/sodipodi-0.dtd"
   xmlns="http://www.w3.org/2000/svg"
   xmlns:svg="http://www.w3.org/2000/svg">
  <sodipodi:namedview
     id="namedview2711"
     pagecolor="#ffffff"
     bordercolor="#000000"
     borderopacity="0.25"
     inkscape:showpageshadow="2"
     inkscape:pageopacity="0.0"
     inkscape:pagecheckerboard="0"
     inkscape:deskcolor="#d1d1d1"
     showgrid="false"
     inkscape:zoom="9.1041667"
     inkscape:cx="-15.432494"
     inkscape:cy="16.860412"
     inkscape:window-width="2560"
     inkscape:window-height="1000"
     inkscape:window-x="1680"
     inkscape:window-y="0"
     inkscape:window-maximized="1"
     inkscape:current-layer="svg2709" />
  <path
     fill-rule="evenodd"
     clip-rule="evenodd"
     d="M9.59604 1.11359C9.71588 1.11486 9.83043 1.0996 9.93969 1.06779C11.3755 0.973736 12.8111 0.977551 14.2467 1.07924C15.5484 1.18066 16.8085 1.46308 18.0269 1.9265C20.0525 2.76044 21.4386 4.2069 22.185 6.26586C22.6119 7.50549 22.8639 8.78021 22.9411 10.09C23.0478 11.7347 23.0096 13.3758 22.8265 15.0133C22.6895 16.1642 22.3916 17.271 21.933 18.3336C21.0824 20.1761 19.704 21.447 17.7978 22.1463C16.2531 22.6682 14.6647 22.943 13.0325 22.9706C11.1966 23.0661 9.37913 22.9287 7.57997 22.5585C4.26839 21.8208 2.22559 19.8018 1.45158 16.5017C1.12311 15.0161 0.974199 13.5124 1.00483 11.9906C0.968176 10.3724 1.14 8.77709 1.52031 7.20471C2.33171 4.11908 4.2905 2.20701 7.39669 1.46852C8.12048 1.29157 8.8536 1.17326 9.59604 1.11359Z"
     fill="url(#paint0_radial_3_321)"
     id="path2696" />
  <path
     d="M 10.070047,10.044224 H 6.487385 c -0.1416002,0 -0.2563884,0.110019 -0.2563884,0.245699 0,0.13572 0.1147882,0.245738 0.2563884,0.245738 h 3.582662 c 0.141623,0 0.256388,-0.110018 0.256388,-0.245738 0,-0.13568 -0.114765,-0.245699 -0.256388,-0.245699 z"
     fill="#fafafa"
     id="path2698"
     style="stroke-width:0.385895" />
  <path
     d="m 4.9548506,5.5852923 c -0.049946,-0.0061 -0.1006529,0.00211 -0.1457562,0.023598 -0.0451,0.021487 -0.082581,0.055291 -0.1077341,0.097164 -0.01696,0.027966 -0.027993,0.05888 -0.032458,0.090955 -0.00446,0.032079 -0.00227,0.064687 0.00646,0.095949 0.00873,0.031261 0.023806,0.060551 0.044374,0.08619 0.020572,0.025639 0.046222,0.047114 0.075477,0.063186 L 7.5448676,7.5658157 4.7952099,9.0902154 c -0.029255,0.016053 -0.054905,0.037548 -0.075477,0.063171 -0.020568,0.025662 -0.035649,0.054951 -0.044374,0.086209 -0.00873,0.031257 -0.010917,0.063866 -0.00646,0.095933 0.00446,0.032068 0.015497,0.062978 0.032458,0.090955 0.071599,0.117968 0.2273653,0.1579081 0.350238,0.090106 l 3.10279,-1.7203957 c 0.037663,-0.021533 0.068844,-0.052173 0.090376,-0.088833 0.021572,-0.03666 0.032762,-0.078105 0.032492,-0.1202062 0.00193,-0.00741 9.648e-4,-0.013931 0.00193,-0.020414 0,-0.00745 0,-0.013931 -0.00193,-0.021379 1.158e-4,-0.041947 -0.011191,-0.083199 -0.032724,-0.1196659 -0.021533,-0.036467 -0.052598,-0.066953 -0.090145,-0.088408 l -3.10279,-1.7213411 c -0.029799,-0.016308 -0.062692,-0.026727 -0.096748,-0.030655 z"
     fill="#fafafa"
     id="path2700"
     style="stroke-width:0.385895" />
  <defs
     id="defs2707">
    <radialGradient
       id="paint0_radial_3_321"
       cx="0"
       cy="0"
       r="1"
       gradientUnits="userSpaceOnUse"
       gradientTransform="translate(12 1) rotate(90) scale(22)">
      <stop
         stop-color="#555555"
         id="stop2702" />
      <stop
         offset="1"
         stop-color="#222222"
         id="stop2704" />
    </radialGradient>
  </defs>
  <path
     d="m 20.070047,10.044224 h -3.582662 c -0.1416,0 -0.256388,0.110019 -0.256388,0.245699 0,0.13572 0.114788,0.245738 0.256388,0.245738 h 3.582662 c 0.141623,0 0.256388,-0.110018 0.256388,-0.245738 0,-0.13568 -0.114765,-0.245699 -0.256388,-0.245699 z"
     fill="#fafafa"
     id="path7474"
     style="stroke-width:0.385895" />
  <path
     d="m 14.954851,5.5852923 c -0.04995,-0.0061 -0.100653,0.00211 -0.145757,0.023598 -0.0451,0.021487 -0.08258,0.055291 -0.107734,0.097164 -0.01696,0.027966 -0.02799,0.05888 -0.03246,0.090955 -0.0045,0.032079 -0.0023,0.064687 0.0065,0.095949 0.0087,0.031261 0.02381,0.060551 0.04437,0.08619 0.02057,0.025639 0.04622,0.047114 0.07548,0.063186 l 2.749655,1.5234814 -2.749658,1.5243997 c -0.02925,0.016053 -0.05491,0.037548 -0.07548,0.063171 -0.02057,0.025662 -0.03565,0.054951 -0.04437,0.086209 -0.0087,0.031257 -0.01092,0.063866 -0.0065,0.095933 0.0045,0.032068 0.0155,0.062978 0.03246,0.090955 0.0716,0.117968 0.227365,0.1579081 0.350238,0.090106 l 3.10279,-1.7203957 c 0.03766,-0.021533 0.06884,-0.052173 0.09038,-0.088833 0.02157,-0.03666 0.03276,-0.078105 0.03249,-0.1202062 0.0019,-0.00741 9.65e-4,-0.013931 0.0019,-0.020414 0,-0.00745 0,-0.013931 -0.0019,-0.021379 1.16e-4,-0.041947 -0.01119,-0.083199 -0.03272,-0.1196659 -0.02153,-0.036467 -0.0526,-0.066953 -0.09014,-0.088408 l -3.10279,-1.7213411 c -0.0298,-0.016308 -0.06269,-0.026727 -0.09675,-0.030655 z"
     fill="#fafafa"
     id="path7476"
     style="stroke-width:0.385895" />
</svg>

<svg xmlns="http://www.w3.org/2000/svg" width="24" height="24" fill="none"><path fill="url(#a)" fill-rule="evenodd" d="M9.596 1.114c.12 0 .234-.014.344-.046a31.627 31.627 0 0 1 4.307.011c1.301.102 2.561.384 3.78.848 2.025.833 3.412 2.28 4.158 4.339.427 1.24.679 2.514.756 3.824a27.94 27.94 0 0 1-.114 4.923 11.88 11.88 0 0 1-.894 3.32c-.85 1.843-2.229 3.114-4.135 3.813a15.624 15.624 0 0 1-4.765.825 21.423 21.423 0 0 1-5.453-.413c-3.312-.737-5.354-2.756-6.128-6.056a19.047 19.047 0 0 1-.447-4.511 18.491 18.491 0 0 1 .515-4.786c.812-3.086 2.77-4.998 5.877-5.736a13.953 13.953 0 0 1 2.199-.355Z" clip-rule="evenodd"/><path fill="#fafafa" d="M10.07 10.044H6.487a.251.251 0 0 0-.256.246c0 .136.115.246.256.246h3.583c.142 0 .256-.11.256-.246a.251.251 0 0 0-.256-.246zM4.955 5.585a.265.265 0 0 0-.146.024.252.252 0 0 0-.14.188.236.236 0 0 0 .05.182c.021.026.047.047.076.063l2.75 1.524-2.75 1.524a.253.253 0 0 0-.12.15.236.236 0 0 0 .026.186.262.262 0 0 0 .35.09l3.103-1.72a.246.246 0 0 0 .09-.089.234.234 0 0 0 .033-.12c.002-.007.001-.014.002-.02 0-.008 0-.014-.002-.022a.234.234 0 0 0-.032-.12.246.246 0 0 0-.09-.088L5.051 5.616a.265.265 0 0 0-.097-.03z" style="stroke-width:.385895"/><defs><radialGradient id="a" cx="0" cy="0" r="1" gradientTransform="matrix(0 22 -22 0 12 1)" gradientUnits="userSpaceOnUse"><stop stop-color="#555"/><stop offset="1" stop-color="#222"/></radialGradient></defs><path fill="#fafafa" d="M20.07 10.044h-3.583a.251.251 0 0 0-.256.246c0 .136.115.246.256.246h3.583c.142 0 .256-.11.256-.246a.251.251 0 0 0-.256-.246zM14.955 5.585a.265.265 0 0 0-.146.024.252.252 0 0 0-.14.188.234.234 0 0 0 .05.182c.021.026.047.047.076.063l2.75 1.524-2.75 1.524a.253.253 0 0 0-.12.15.237.237 0 0 0 .026.186.262.262 0 0 0 .35.09l3.103-1.72a.246.246 0 0 0 .09-.089.234.234 0 0 0 .033-.12c.002-.007.001-.014.002-.02 0-.008 0-.014-.002-.022a.234.234 0 0 0-.032-.12.246.246 0 0 0-.09-.088l-3.103-1.721a.265.265 0 0 0-.097-.03z" style="stroke-width:.385895"/></svg>
